X:142
%%etbk:tnset id:50,pos:2,rep:3x,ant:
%%etbk:skill ?
%%etbk:pldat 2013-05-15T16:18
T: Ballynahoun Reel, The
Z: Piano Box Version by Martin Fleischmann
H: Created 2013-02-19 /  Last Modified 2013-02-19
M: 4/4
L: 1/8
R: reel
K: Ddor
!2!G|: "dm"!1!A!3!d{e}dc Ad!3!d!1!B | "C"!2!c2!4!ec !1!Gcec | "dm"!1!A!3!d{e}dc !1!A3c | "am"!1!A!2!ccd !4!ecdc |
"dm"!1!A!3!d{e}dc Ad!3!d!1!B | "C"!2!c2!4!ec !1!Gcec | "F"!1!F!3!A!2!G!1!E !1!F3!3!A | "dm"!5!c!3!A!2!G!1!E !1!D4 :|
E|: "F"!3!F!2!F!3!F!2!E !3!FGAF | !3!F2AF "C"!4!G!2!E!1!CE | "F"!3!F3!2!E !1!F!3!A!5!c!3!A | "dm"!2!G!1!F!2!E!3!F !1!D3E |
"F" !3!F{G}!3!F!3!FE !3!FGAF | !3!F2AF "C"!4!G!2!E!1!CE | "dm"!1!DEF!4!G !2!A3!5!d | "am"!4!c!2!A!1!G!2!E "dm"!1!D4 :|
